src/img/aviso - alerta.svg

<svg width="32" height="33" viewBox="0 0 32 33" fill="none" xmlns="http://www.w3.org/2000/svg">
<path d="M25.6328 20.3516C26.1641 21.2734 26.1562 22.1953 25.6094 23.1172C25.0781 24.0391 24.2812 24.5 23.2188 24.5H8.78125C7.71875 24.5 6.91406 24.0391 6.36719 23.1172C5.83594 22.1953 5.83594 21.2734 6.36719 20.3516L14.2891 6.5C14.6641 5.82812 15.2344 5.49219 16 5.49219C16.7656 5.49219 17.3359 5.82812 17.7109 6.5L25.6328 20.3516ZM15.5078 12.5V18.5H16.4922V12.5H15.5078ZM16 21.0078C16.2031 21.0078 16.375 20.9375 16.5156 20.7969C16.6719 20.6406 16.75 20.4609 16.75 20.2578C16.75 20.0391 16.6719 19.8594 16.5156 19.7188C16.375 19.5781 16.2031 19.5078 16 19.5078C15.7969 19.5078 15.6172 19.5781 15.4609 19.7188C15.3203 19.8594 15.25 20.0391 15.25 20.2578C15.25 20.4609 15.3203 20.6406 15.4609 20.7969C15.6172 20.9375 15.7969 21.0078 16 21.0078Z" fill="#F1AE2F"/>
</svg>

<svg width="32" height="33" fill="none" xmlns="http://www.w3.org/2000/svg"><path d="M25.633 20.352c.531.921.523 1.843-.024 2.765-.53.922-1.328 1.383-2.39 1.383H8.78c-1.062 0-1.867-.46-2.414-1.383-.531-.922-.531-1.844 0-2.765L14.29 6.5c.375-.672.945-1.008 1.711-1.008.766 0 1.336.336 1.71 1.008l7.923 13.852zM15.508 12.5v6h.984v-6h-.984zM16 21.008c.203 0 .375-.07.516-.211a.741.741 0 00.234-.54.693.693 0 00-.234-.538.701.701 0 00-.516-.211.782.782 0 00-.54.21.73.73 0 00-.21.54c0 .203.07.383.21.539.157.14.337.21.54.21z" fill="#F1AE2F"/></svg>
